X: 1
P: The Cowboy's Jig
C: a.k.a. I've Been Sad in the Saddle Since My Horse Died
C: from John Chambers 1977, mods. by T. Traub 6-27-03
R: jig
Z: 1997 by John Chambers <jc@trillian.mit.edu>
M: 6/8
L: 1/8
K: G
|: BA \
| "G"GDE G2A | "G"Bgf gdB | "Am"ABc BcA | "C"BcA "D7"BGE \
| "G"GDE G2A | "Em"Bgf gdB | "C"ABc "D7"BcA | "G"BGG G :|
|: Bd \
| "C"e2e e2e | "Am"egf edB | "Bm"d2d d2d | "Em"dge dBG \
| "C"c2d "D7"e2f | "G"gdB "D7"A2c | "G"BGA "D7"BcA | "G"BGG G :|
